!!!COM:	Anonymous
!!!OTL:	Se je suis despourveu / Veni veni
!!!AGN:	Song; Chanson
!!!SCT:	Ano3037
!!!SCA:	Ano3037
!!!SMS:	Escorial B
!!!folio:	
!!!voices:	3
**kern	**kern	**kern
*staff3	*staff2	*staff1
*Ivox	*Ivox	*Ivox
*I"Tenor	*I"Contratenor	*I"Superius
*I'T	*I'Ct	*I'S
*clefF4	*clefGv2	*clefG2
*k[b-]	*k[b-]	*k[b-]
*M2/1	*M2/1	*M2/1
*met(C|)	*met(C|)	*met(C|)
=1-	=1-	=1-
0r	0G	0r
=2	=2	=2
0r	1F	0r
.	1D	.
=3	=3	=3
0r	0E	0g
=4	=4	=4
0r	1D	1f
.	1d	1d
=5	=5	=5
0r	1c	0e
.	2d	.
.	2e	.
=6	=6	=6
0r	0f	0d
=7	=7	=7
0r	1f	0a
.	1d	.
=8	=8	=8
0r	0e	1g
.	.	1e
=9	=9	=9
0r	[0d	1.f
.	.	2g
=10	=10	=10
0r	1d]	0a
.	[1A	.
=11	=11	=11
0r	1A]	1f
.	[1G	[1e
=12	=12	=12
0r	1G]	2e]
.	.	2d
.	1F	[1d
=13	=13	=13
0r	0E	2d]
.	.	2c#i
.	.	2c#i
.	.	2Bni
=14	=14	=14
0r	[0D	[0d
=15	=15	=15
0r	0D]	1d]
.	.	1d
=16	=16	=16
0r	1r	1e
.	1D	1f
=17	=17	=17
0r	1E	1g
.	1F	1a
=18	=18	=18
0r	0G	3%4dV
.	.	3%2eZ
=19	=19	=19
0r	1B-	3%2dV
.	.	3%4gZ
.	1c	.
=20	=20	=20
0r	0d	3%4fV
.	.	3%2gZ
=21	=21	=21
0r	0c	3%4aV
.	.	3%2b-Z
=22	=22	=22
0r	1d	3%2aV
.	.	3%2b-
.	1G	.
.	.	3%2gZ
=23	=23	=23
0r	0A	3%2f#iV
.	.	3%2g
.	.	3%2eZ
=24	=24	=24
0r	0G	0g
=25	=25	=25
1G	1.B-	0r
1G	.	.
.	2c	.
=26	=26	=26
1G	1d	0b-
1G	1e	.
=27	=27	=27
1F	0f	1a
1F	.	1a
=28	=28	=28
*	*M2/1	*
*	*met(3)	*
0B-	3%4d	0g
.	3%2G	.
=29	=29	=29
1A	3%4.D	1f
1B-	.	1d
=30	=30	=30
1c	3%4A	2e
.	.	2f
1B-	.	1g
.	3%2G	.
=31	=31	=31
1A	3%4F	1r
1A	.	1a
.	3%2c	.
=32	=32	=32
0G	3%4d	1b-
.	.	[1g
.	3%2e-i	.
=33	=33	=33
1G	3%4d	1g]
1G	.	[1dd
.	[3%2B-	.
=34	=34	=34
1G	3%2B-]	2dd]
.	.	2b-
.	3%4d	.
1G	.	[1b-
=35	=35	=35
1F	3%4D	2b-]
.	.	2a
1F	.	[1a
.	3%2A	.
=36	=36	=36
0B-	3%2D	2a]
.	.	2g
.	3%4G	.
.	.	2g
.	.	2f
=37	=37	=37
*	*M2/1	*
*	*met(C|)	*
0A	0D	0a
=38	=38	=38
1G	0d	1r
1G	.	1b-
=39	=39	=39
0A	0c	1cc
.	.	[1a
=40	=40	=40
0F	1r	1a]
.	1c	[1f
=41	=41	=41
0D	0d	1f]
.	.	1a
=42	=42	=42
1E	1r	1g
1F	1A	[1d
=43	=43	=43
0G	1.B-	1d]
.	.	1e
.	2G	.
=44	=44	=44
0r	1A	1f
.	[1G	1g
=45	=45	=45
0r	1G]	0e
.	[1A	.
=46	=46	=46
0r	1A]	1c
.	1F	1d
=47	=47	=47
0r	1G	1e
.	1A	[1f
=48	=48	=48
0r	0B-	1f]
.	.	1g
=49	=49	=49
0r	1c	2a
.	.	2b-
.	[1A	[1cc
=50	=50	=50
0r	1A]	2cc]
.	.	2b-
.	1F	2a
.	.	2g
=51	=51	=51
0r	0G	2f
.	.	2g
.	.	2e
.	.	2d
=52	=52	=52
*	*	*M2/1
*	*	*met(3)
0r	0F	3%4f
.	.	3%2f
=53	=53	=53
0r	0B-	3%4d
.	.	3%2g
=54	=54	=54
0r	0A	3%2f
.	.	3%2g
.	.	3%2a
=55	=55	=55
0r	0G	3%4b-
.	.	3%2g
=56	=56	=56
0r	0d	3%2b-
.	.	3%4a
=57	=57	=57
0r	0e	3%2g
.	.	3%2f
.	.	3%2e
=58	=58	=58
*	*	*M2/1
*	*	*met(C|)
0r	0f	0d
=59	=59	=59
0r	1.d	0r
.	2c	.
=60	=60	=60
0r	0B-	0dd
=61	=61	=61
0r	0A	1cc
.	.	1a
=62	=62	=62
1G	0r	1b-
1G	.	[1g
=63	=63	=63
1G	0d	1g]
1G	.	1b-
=64	=64	=64
1F	1r	1a
1F	1f	[1d
=65	=65	=65
0B-	0f	1d]
.	.	[1f
=66	=66	=66
1A	1c	1f]
1B-	1d	1g
=67	=67	=67
1c	1e	2a
.	.	2g
1B-	[1d	[1g
=68	=68	=68
1A	1d]	2g]
.	.	2f#i
1A	1c	2f#i
.	.	2e
=69	=69	=69
0G	0d	0g
=70	=70	=70
1c	1A	1r
1B-	1G	1g
=71	=71	=71
1A	1D	1f
1G	1r	1b-
=72	=72	=72
1F	0D	0a
1F	.	.
=73	=73	=73
0B-	0G	1r
.	.	1dd
=74	=74	=74
0A	1r	1cc
.	1c	1a
=75	=75	=75
1G	0d	1b-
1G	.	2a
.	.	2g
=76	=76	=76
0A	[0D	1.f
.	.	2e
=77	=77	=77
0F	0D]	1f
.	.	[1d
=78	=78	=78
0D	0A	1d]
.	.	1f
=79	=79	=79
1E	0r	1g
1F	.	1a
=80	=80	=80
0G	0r	0b-
=81	=81	=81
0r	0d	1a
.	.	1a
=82	=82	=82
0r	0e-i	0g
=83	=83	=83
0r	0d	0f
=84	=84	=84
0d	0G	0r
=85	=85	=85
*	*	*M2/1
*	*	*met(3)
0B-	0d	3%4g
.	.	3%2d
=86	=86	=86
0A	0c	3%2e
.	.	3%4f
=87	=87	=87
0G	0d	3%4g
.	.	3%2b-
=88	=88	=88
*	*	*M2/1
*	*	*met(2/1)
!	!	!LO:TX:X=-20:Z=38:t=Maniates (and, presumably,
!	!	!LO:TX:X=-20:Z=8:t=EscB) gives 2/3 [sic]
!	!	!LO:N:vis=0
1F	1f	3%2a
!	!	!LO:N:vis=0
.	.	3%2b-
1G	[1d	.
!	!	!LO:N:vis=0
.	.	3%2g
=89	=89	=89
!	!	!LO:N:vis=0
0D	1d]	[3%2f
!	!	!LO:N:vis=0
.	.	3%2f]
.	1A	.
!	!	!LO:N:vis=0
.	.	3%2d
=90	=90	=90
!	!	!LO:N:vis=0
0A	0c	3%2f
!	!	!LO:N:vis=0
.	.	[3%2e
!	!	!LO:N:vis=0
.	.	3%2e]
=91	=91	=91
!	!	!LO:N:vis=0
0B-	0G	3%2d
!	!	!LO:N:vis=0
.	.	3%2e
!	!	!LO:N:vis=0
.	.	3%2g
=92	=92	=92
!	!	!LO:N:vis=0
1A	0D	3%2f
!	!	!LO:N:vis=0
.	.	3%2e
2G	.	.
!	!	!LO:N:vis=0
.	.	3%2d
2F	.	.
=93	=93	=93
!	!	!LO:N:vis=0
0E	0G	3%2c#i
!	!	!LO:N:vis=0
.	.	3%2d
!	!	!LO:N:vis=0
.	.	3%2Bni
=94	=94	=94
*	*	*M2/1
*	*	*met(C|)
*	*	*rscale:1
0D	0A	1.d
.	.	2e
=95	=95	=95
0d	1r	2f
.	.	2g
.	1D	[1a
=96	=96	=96
0c	1F	2a]
.	.	2f
.	1E	2g
.	.	2a
=97	=97	=97
*	*	*M2/1
*	*	*met(2)
*	*	*rscale:2
0d	1D	2b-
.	.	2a
.	[1G	2b-
.	.	2cc
=98	=98	=98
1G	1G]	2b-
.	.	2a
1B-	1G	2g
.	.	2a
=99	=99	=99
0A	0D	2g
.	.	2f#i
.	.	2g
.	.	2e
=100	=100	=100
*	*	*M2/1
*	*	*met(C|)
*	*	*rscale:1
1G	0d	1g
1D	.	1f
=101	=101	=101
0G	0B-	1d
.	.	1e
=102	=102	=102
1A	1c	0f
[1B-	1d	.
=103	=103	=103
1B-]	1G	1g
1c	1F	[1a
=104	=104	=104
0d	0D	1a]
.	.	1f
=105	=105	=105
1B-	0d	0g
[1G	.	.
=106	=106	=106
1G]	1G	1b-
1c	2A	1a
.	[2F	.
=107	=107	=107
2A	2F]	2cc
2G	1G	1b-
1B-	.	.
.	2G	2g
=108	=108	=108
2c	2F	1a
1d	1D	.
.	.	2f
2B-	2G	[2g
=109	=109	=109
1c	2E	2g]
.	2r	2e
1d	2G	2d
.	[2F	[2a
=110	=110	=110
2c	2F]	2a]
2d	2D	2f
2B-	2d	2g
2c	2e	2a
=111	=111	=111
1G	1d	1b-
1A	1c	2cc
.	.	[2a
=112	=112	=112
2F	1d	2a]
1G	.	2b-
.	2B-	2g
2F	2A	[2a
=113	=113	=113
2A	2F	2a]
2B-	2G	2g
1A	1D	2f#i
.	.	2e
=114	=114	=114
0Gl	0dl	0gl
*	*	*rscale:1
==	==	==
*-	*-	*-
!!!RDF**kern: l=long note in original notation
!!!RDF**kern: i=editorial accidental
!!!RDF**kern: V=start of tuplet marker
!!!RDF**kern: Z=end of tuplet marker
!!!ENC:	Chris Gage 03-06-2015
!!!END:	2015/03/13/
!!!EED:	Jesse Rodin
!!!EEV:	2016/02/22/
!!!ONB:	Translated from MusicXML and edited on 2016/02/22/ by Craig Sapp
!!muse2ps: C^@{COM}\n@{SMS} @{folio}^v95,95,150Q16
